assets/img/hr/hero-hr-mid.svg

<?xml version="1.0" encoding="UTF-8" standalone="no"?>
<!DOCTYPE svg PUBLIC "-//W3C//DTD SVG 1.1//EN" "http://www.w3.org/Graphics/SVG/1.1/DTD/svg11.dtd">
<svg xmlns="http://www.w3.org/2000/svg" xmlns:xlink="http://www.w3.org/1999/xlink" width="100%" height="100%" version="1.1" viewBox="0 0 430 430" xml:space="preserve">
    <defs/>
    <g id="hero-mid" opacity="1">
        <path fill="#ffffff" d="M-10+230L518.547+230L518.547+300L-10+300L-10+230Z" opacity="1"/>
        <path fill="#ffffff" d="M54.1749+3.63428C54.1749+3.6343+45.869+12.4669+30.7377+18.0443C15.6064+23.6217+0.468612+29.1881+0.468612+29.1881C0.468614+29.188+6.06152+44.514+11.5704+59.8334C17.0794+75.1527+15.6506+87.2124+15.6506+87.2124L29.4093+93.7449C29.4093+93.7449+66.8333+94.3783+107.881+105.273C148.929+116.168+193.659+137.263+193.659+137.263C193.659+137.263+196.767+133.334+202.104+135.822C207.442+138.31+215.009+147.215+215.009+147.215C215.009+147.215+222.648+138.286+228.009+135.822C233.37+133.358+236.454+137.359+236.454+137.359C236.454+137.359+281.188+116.184+322.232+105.273C363.276+94.3618+400.704+93.7449+400.704+93.7449L414.463+87.2124C414.463+87.2124+413.04+75.155+418.543+59.8334C424.046+44.5118+429.55+29.1881+429.55+29.1881C429.55+29.1881+414.414+23.6156+399.281+18.0443C384.147+12.473+375.938+3.63428+375.938+3.63428L362.18+10.1668C362.18+10.1668+337.593+38.6441+302.97+63.4839C268.347+88.3237+223.644+109.5+223.644+109.5C223.644+109.5+222.011+113.723+219.374+117.089C217.568+119.395+212.582+119.439+210.739+117.089C208.101+113.724+206.469+109.404+206.469+109.404C206.469+109.404+161.681+88.3098+127.048+63.4839C92.4155+38.658+67.9336+10.1668+67.9336+10.1668L54.1749+3.63428ZM55.5033+25.4414C55.5033+25.4414+63.1087+33.8098+68.2182+39.179C73.3278+44.5482+78.2763+49.9386+78.2763+49.9385L70.7802+51.0913C70.7802+51.0913+71.1281+52.8679+71.824+54.8379C72.5198+56.8079+73.6268+58.9688+73.6268+58.9688C73.6268+58.9688+82.7026+59.3321+90.2321+63.2918C95.8244+66.2327+101.576+71.373+105.509+74.4355C115.745+82.4058+125.53+89.8062+125.53+89.8062C125.53+89.8062+102.429+85.524+87.3855+79.8153C73.0704+74.3831+71.212+63.4762+68.7876+57.3356C65.5063+49.0246+64.3427+43.3255+55.788+39.179C47.7754+35.2952+37.3249+39.231+34.6281+45.5194C31.8303+52.0434+35.3653+58.5379+39.9418+60.698C47.15+64.1002+57.496+60.3137+57.496+60.3137C57.496+60.3137+57.5847+58.6154+57.2113+57.0474C56.8379+55.4793+55.9778+54.0693+55.9778+54.0694C55.9778+54.0693+47.8751+60.8883+41.9344+58.2963C37.6386+56.4222+35.9867+53.3672+37.8543+48.4014C39.296+44.5679+45.4604+42.2051+51.1385+44.7509C59.1383+48.3376+61.0039+56.5216+61.1017+60.5058C61.3515+70.6852+65.3717+77.5096+65.3716+77.5097C65.3716+77.5096+57.0639+76.8087+49.7152+76.2608C42.3665+75.7129+33.7741+75.3001+33.7741+75.3001C33.7741+75.3001+31.6642+64.9404+28.5553+56.0868C25.4464+47.2331+21.3439+39.9474+21.3438+39.9475C21.3439+39.9475+29.7764+38.7549+38.3287+35.1442C46.881+31.5335+55.5033+25.4414+55.5033+25.4414ZM374.515+25.4414C374.515+25.4414+383.136+31.5369+391.69+35.1442C400.243+38.7515+408.769+39.8515+408.769+39.8515C408.769+39.8513+404.568+47.2319+401.463+56.0868C398.358+64.9417+396.339+75.3001+396.339+75.3001C396.339+75.3001+387.652+75.7099+380.303+76.2608C372.955+76.8116+364.741+77.5097+364.742+77.5097C364.742+77.5096+368.766+70.6852+369.011+60.5058C369.108+56.5216+370.976+48.3408+378.975+44.7509C384.652+42.2028+390.816+44.5685+392.259+48.4014C394.128+53.3665+392.474+56.4204+388.179+58.2963C382.239+60.8906+374.135+54.0694+374.135+54.0694C374.135+54.0693+373.275+55.4791+372.902+57.0474C372.529+58.6156+372.617+60.3137+372.617+60.3137C372.617+60.3137+382.87+64.103+390.076+60.698C394.652+58.5361+398.285+51.9462+395.485+45.4233C392.786+39.136+382.336+35.292+374.325+39.179C365.772+43.329+364.604+49.0233+361.326+57.3356C358.904+63.4772+356.946+74.3773+342.633+79.8153C327.591+85.53+304.583+89.9023+304.583+89.9023C304.583+89.9023+314.276+82.5059+324.509+74.5316C328.441+71.4675+334.195+66.235+339.786+63.2918C347.314+59.3291+356.486+58.9687+356.486+58.9688C356.486+58.9688+357.594+56.8082+358.289+54.8379C358.984+52.8676+359.238+51.0913+359.238+51.0913L351.742+49.9385C351.742+49.9386+356.787+44.5503+361.895+39.179C367.002+33.8077+374.515+25.4415+374.515+25.4414Z" opacity="1"/>
    </g>
</svg>

<svg xmlns="http://www.w3.org/2000/svg" width="100%" height="100%" viewBox="0 0 430 430"><g fill="#fff"><path d="M-10 230h528.547v70H-10v-70zM54.175 3.634s-8.306 8.833-23.437 14.41C15.606 23.622.468 29.188.468 29.188S6.063 44.514 11.57 59.833c5.51 15.32 4.08 27.38 4.08 27.38l13.76 6.532s37.423.633 78.471 11.528 85.778 31.99 85.778 31.99 3.108-3.929 8.445-1.441c5.338 2.488 12.905 11.393 12.905 11.393s7.639-8.929 13-11.393c5.361-2.464 8.445 1.537 8.445 1.537s44.734-21.175 85.778-32.086c41.044-10.911 78.472-11.528 78.472-11.528l13.759-6.533s-1.423-12.057 4.08-27.379l11.007-30.645-30.269-11.144c-15.134-5.571-23.343-14.41-23.343-14.41l-13.758 6.533s-24.587 28.477-59.21 53.317c-34.623 24.84-79.326 46.016-79.326 46.016s-1.633 4.223-4.27 7.589c-1.806 2.306-6.792 2.35-8.635 0-2.638-3.365-4.27-7.685-4.27-7.685s-44.788-21.094-79.421-45.92C92.415 38.658 67.934 10.167 67.934 10.167l-13.76-6.533zm1.328 21.807S63.11 33.81 68.218 39.18c5.11 5.37 10.058 10.76 10.058 10.76L70.78 51.09s.348 1.777 1.044 3.747c.696 1.97 1.803 4.13 1.803 4.13s9.076.364 16.605 4.324c5.592 2.94 11.344 8.081 15.277 11.144a2038.453 2038.453 0 0 0 20.021 15.37s-23.101-4.282-38.145-9.99c-14.315-5.433-16.173-16.34-18.597-22.48-3.282-8.311-4.445-14.01-13-18.157-8.013-3.884-18.463.052-21.16 6.34-2.798 6.524.737 13.019 5.314 15.179 7.208 3.402 17.554-.384 17.554-.384s.089-1.699-.285-3.267c-.373-1.568-1.233-2.978-1.233-2.978s-8.103 6.82-14.044 4.227c-4.295-1.874-5.947-4.929-4.08-9.895 1.442-3.833 7.606-6.196 13.285-3.65 8 3.587 9.865 11.77 9.963 15.755.25 10.18 4.27 17.004 4.27 17.004s-8.308-.701-15.657-1.25c-7.349-.547-15.94-.96-15.94-.96s-2.11-10.36-5.22-19.213c-3.109-8.854-7.211-16.14-7.211-16.14s8.432-1.192 16.985-4.803c8.552-3.61 17.174-9.703 17.174-9.703zm319.012 0s8.621 6.096 17.175 9.703c8.553 3.608 17.079 4.708 17.079 4.708s-4.201 7.38-7.306 16.235c-3.105 8.855-5.124 19.213-5.124 19.213s-8.687.41-16.036.96a1826.84 1826.84 0 0 0-15.561 1.25s4.024-6.825 4.269-17.004c.097-3.984 1.965-12.165 9.964-15.755 5.677-2.548 11.841-.182 13.284 3.65 1.869 4.965.215 8.02-4.08 9.895-5.94 2.595-14.044-4.227-14.044-4.227s-.86 1.41-1.233 2.978c-.373 1.569-.285 3.267-.285 3.267s10.253 3.789 17.459.384c4.576-2.162 8.209-8.752 5.409-15.275-2.699-6.287-13.149-10.131-21.16-6.244-8.553 4.15-9.721 9.844-12.999 18.157-2.422 6.141-4.38 17.041-18.693 22.48-15.042 5.714-38.05 10.086-38.05 10.086s9.693-7.396 19.926-15.37c3.932-3.064 9.686-8.297 15.277-11.24 7.528-3.963 16.7-4.323 16.7-4.323s1.108-2.16 1.803-4.131c.695-1.97.949-3.747.949-3.747l-7.496-1.153s5.045-5.388 10.153-10.759c5.107-5.371 12.62-13.738 12.62-13.738z"/></g></svg>
